X:367
T: Noran Keestha
T: Nora an C\'iste
N: O'Farrell's Pocket Companion v.4 (Sky ed. p.158)
N: "Irish"
% There's another setting of this in PC Vol.II (#111)
M: 6/8
L: 1/8
Q: 270
R: jig
K: D
A| d2d f2d| gag fed| f/g/af ged| =c3 e3|
d2d f2d| gag fed| f/g/af gec| d3d2 :|
P:2
A| d2e =f2g| aba gfe| fdd ged| =c3 e3|
d2e =f2g| aba gfe| fdd gec| d3d2 :|
P:3
a| ged cec| dfd e/f/ge| fdd ecA| =c3a3|
ged cec| dfd e/f/ge| fdd gec| d3d2 :|
P:4
a| ged =c2A| AGA =c2d| ede =c2A| =c3a3|
ged =c2A| AGA =c2A| ded gec| d3d2 :|
